X: 35557
T: Rusty Gulley, The
R: three-two
M: 3/2
K: Bmixolydian
|:Bcde f2B2 f2B2|A2c2- c2e2 d2c2|Bcde f2B2 d2B2|F2B2- B2d2 c2B2:|
|:b4 a4 g4|a2f2- f2a2 g2f2|e4 d4 c4|d2B2- B2d2 c2B2:|
|:Bcde f2B2 d2B2|A2c2 c2e2 d2c2|Bcde f2B2 d2B2|F2B2 B2d2 c2B2:|
|:b4 a4 g2b2|a2f2 f2a2 g2f2|e2b2 d2b2 c2b2|d2B2 B2d2 c2B2:|

